src/icons/SVG/24px/Universe_ChristmasTree_24px.svg

<svg width="24" height="24" viewBox="0 0 24 24" fill="none" xmlns="http://www.w3.org/2000/svg">
<g id="Square"> </g>
<g id="Icon">
<path id="Union" fill-rule="evenodd" clip-rule="evenodd" d="M12.8 2.4C12.6112 2.14819 12.3148 2 12 2C11.6852 2 11.3889 2.14819 11.2 2.4L8.20001 6.4C7.90142 6.79812 7.94101 7.35521 8.2929 7.70711C8.49485 7.90906 8.73912 8.0688 8.99976 8.19598L6.24743 11.3415C5.90075 11.7377 5.92063 12.3348 6.2929 12.7071C6.65399 13.0682 7.09272 13.3627 7.57272 13.6005L4.2526 17.3356C4.06038 17.5519 3.97124 17.8408 4.0082 18.1277C4.04515 18.4147 4.20457 18.6716 4.44531 18.8321C5.34667 19.433 6.55027 19.842 7.83031 20.1046C8.82358 20.3084 9.90428 20.4322 11 20.4788V21C11 21.5523 11.4477 22 12 22C12.5523 22 13 21.5523 13 21V20.4788C14.0957 20.4322 15.1764 20.3083 16.1697 20.1046C17.4497 19.842 18.6533 19.433 19.5547 18.8321C19.7954 18.6716 19.9549 18.4147 19.9918 18.1277C20.0288 17.8408 19.9396 17.5519 19.7474 17.3356L16.4273 13.6005C16.9073 13.3627 17.346 13.0682 17.7071 12.7071C18.0794 12.3348 18.0993 11.7377 17.7526 11.3415L15.0003 8.19598C15.2609 8.0688 15.5052 7.90906 15.7071 7.70711C16.059 7.35521 16.0986 6.79812 15.8 6.4L12.8 2.4ZM14.3533 14.2776C13.5953 14.4274 12.7932 14.5 12 14.5C11.2068 14.5 10.4048 14.4274 9.64672 14.2776L9.26072 14.7119C9.73941 15.6486 10.7636 16.4883 12.142 17.1062C13.3496 17.6476 14.7627 17.9856 16.1524 18.0607C16.608 17.9531 17.0217 17.8288 17.3872 17.6908L14.3533 14.2776ZM12.9422 18.4794C12.5243 18.346 12.1192 18.1919 11.733 18.0188C10.408 17.4248 9.23342 16.5718 8.55908 15.5012L6.61276 17.6909C7.07868 17.8667 7.62271 18.0204 8.2322 18.1454C9.3749 18.3798 10.6815 18.5 12 18.5C12.3154 18.5 12.6302 18.4931 12.9422 18.4794ZM8.48566 11.8207L11.1999 8.71872C11.4655 8.73977 11.7342 8.75 12 8.75C12.2659 8.75 12.5345 8.73977 12.8001 8.71872L13.6071 9.64096C12.9774 10.6073 11.7664 11.7925 9.85136 12.2773C9.69656 12.2432 9.54575 12.2052 9.39973 12.1635C9.05264 12.0643 8.7473 11.9483 8.48566 11.8207ZM15.5144 11.8207L14.2861 10.417C13.7716 11.1373 13.0079 11.9089 11.9676 12.5L12 12.5C12.9222 12.5 13.8281 12.3841 14.6003 12.1635C14.9474 12.0643 15.2527 11.9483 15.5144 11.8207ZM11.5959 6.74019C11.2166 6.72165 10.856 6.67721 10.5423 6.61027L10.9505 6.06598C11.1434 6.29553 11.3592 6.52449 11.5959 6.74019ZM13.4577 6.61027C13.373 6.62835 13.2848 6.64479 13.1938 6.65952C12.866 6.48871 12.5578 6.26314 12.2738 6.00503C12.0071 5.76257 11.7706 5.49898 11.5691 5.24124L12 4.66667L13.4577 6.61027ZM12.5 10C12.5 10.2761 12.2761 10.5 12 10.5C11.7239 10.5 11.5 10.2761 11.5 10C11.5 9.72386 11.7239 9.5 12 9.5C12.2761 9.5 12.5 9.72386 12.5 10ZM10.5 11.5C10.7761 11.5 11 11.2761 11 11C11 10.7239 10.7761 10.5 10.5 10.5C10.2239 10.5 10 10.7239 10 11C10 11.2761 10.2239 11.5 10.5 11.5ZM13 15.5C13 15.7761 12.7761 16 12.5 16C12.2239 16 12 15.7761 12 15.5C12 15.2239 12.2239 15 12.5 15C12.7761 15 13 15.2239 13 15.5ZM8.50001 18C8.77615 18 9.00001 17.7761 9.00001 17.5C9.00001 17.2239 8.77615 17 8.50001 17C8.22386 17 8.00001 17.2239 8.00001 17.5C8.00001 17.7761 8.22386 18 8.50001 18ZM15 16.5C15 16.7761 14.7761 17 14.5 17C14.2239 17 14 16.7761 14 16.5C14 16.2239 14.2239 16 14.5 16C14.7761 16 15 16.2239 15 16.5Z" fill="black"/>
</g>
</svg>

<svg xmlns="http://www.w3.org/2000/svg" viewBox="0 0 24 24">
  <g id="Square"> </g>
  <path fill-rule="evenodd" d="M12.8 2.4a1 1 0 00-1.6 0l-3 4a1 1 0 00.093 1.307c.202.202.446.362.707.489l-2.753 3.146a1 1 0 00.046 1.365c.361.361.8.656 1.28.893l-3.32 3.736a1 1 0 00.192 1.496c.902.601 2.105 1.01 3.385 1.273a20.22 20.22 0 003.17.374V21a1 1 0 102 0v-.521a20.233 20.233 0 003.17-.374c1.28-.263 2.483-.672 3.385-1.273a1 1 0 00.192-1.496l-3.32-3.735c.48-.238.919-.533 1.28-.894a1 1 0 00.046-1.366L15 8.197c.26-.127.505-.287.707-.489A1 1 0 0015.8 6.4l-3-4zm1.553 11.878c-.758.15-1.56.222-2.353.222-.793 0-1.595-.073-2.353-.222l-.386.434c.478.937 1.503 1.776 2.881 2.394 1.208.542 2.62.88 4.01.955.456-.108.87-.232 1.235-.37l-3.034-3.413zm-1.41 4.201a11.543 11.543 0 01-1.21-.46c-1.325-.594-2.5-1.447-3.174-2.518l-1.946 2.19c.466.176 1.01.33 1.62.454 1.142.235 2.448.355 3.767.355.315 0 .63-.007.942-.02zm-4.457-6.658L11.2 8.719a10.16 10.16 0 001.6 0l.807.922c-.63.966-1.84 2.152-3.756 2.636a7.6 7.6 0 01-.451-.113 5.607 5.607 0 01-.914-.343zm7.028 0l-1.228-1.404a7.282 7.282 0 01-2.318 2.083H12c.922 0 1.828-.116 2.6-.336.347-.1.653-.216.914-.343zm-3.918-5.08a6.7 6.7 0 01-1.054-.13l.409-.545c.192.23.408.458.645.674zm1.862-.13a5.4 5.4 0 01-.264.049 4.42 4.42 0 01-.92-.655 6.184 6.184 0 01-.705-.764L12 4.667l1.458 1.943zM12.5 10a.5.5 0 11-1 0 .5.5 0 011 0zm-2 1.5a.5.5 0 100-1 .5.5 0 000 1zm2.5 4a.5.5 0 11-1 0 .5.5 0 011 0zM8.5 18a.5.5 0 100-1 .5.5 0 000 1zm6.5-1.5a.5.5 0 11-1 0 .5.5 0 011 0z"/>
</svg>
